icons/Cloudy Night--1504902.svg

<svg enable-background="new 0 0 16 16" viewBox="0 0 16 16" xmlns="http://www.w3.org/2000/svg"><path d="m13 13h-9.5c-1.93 0-3.5-1.57-3.5-3.5 0-1.902 1.525-3.454 3.416-3.499.787-1.81 2.583-3.001 4.584-3.001 2.409 0 4.436 1.688 4.902 4.001 1.748-.043 3.098 1.312 3.098 2.999 0 1.654-1.346 3-3 3zm-9.5-6c-1.378 0-2.5 1.121-2.5 2.5s1.122 2.5 2.5 2.5h9.5c1.103 0 2-.897 2-2s-.897-2-2-2c-.147 0-.297.017-.428.041-.137.026-.28-.007-.392-.091s-.184-.211-.197-.35c-.208-2.052-1.92-3.6-3.983-3.6-1.703 0-3.221 1.079-3.777 2.684-.085.244-.341.386-.594.321-.023-.005-.089-.005-.129-.005z"/><path d="m13 8c-.228 0-.448-.025-.654-.073-.27-.063-.436-.333-.372-.602.062-.268.331-.435.601-.372.131.031.275.047.425.047.948 0 1.745-.664 1.949-1.551-.145.034-.296.051-.449.051-1.103 0-2-.897-2-2 0-.153.018-.303.051-.448-.699.162-1.277.695-1.48 1.405-.076.265-.351.418-.618.344-.265-.076-.419-.353-.343-.618.366-1.286 1.555-2.183 2.89-2.183.159 0 .306.012.452.037.182.03.331.157.391.331s.02.366-.105.501c-.156.168-.238.386-.238.631 0 .551.448 1 1 1 .244 0 .463-.082.63-.237.135-.125.327-.165.501-.106s.301.208.332.39c.024.146.037.294.037.453 0 1.654-1.346 3-3 3z"/></svg>

<?xml version="1.0" encoding="utf-8"?>
<!DOCTYPE svg PUBLIC "-//W3C//DTD SVG 1.0//EN" "http://www.w3.org/TR/2001/REC-SVG-20010904/DTD/svg10.dtd">
<svg    fill="#000000" xmlns="http://www.w3.org/2000/svg" xmlns:xlink="http://www.w3.org/1999/xlink" version="1.1" x="0px" y="0px" viewBox="0 0 16 16" style="enable-background:new 0 0 16 16;" xml:space="preserve"><g><path d="M13,13H3.5C1.57,13,0,11.43,0,9.5c0-1.902,1.525-3.454,3.416-3.499C4.203,4.191,5.999,3,8,3   c2.409,0,4.436,1.688,4.902,4.001C14.65,6.958,16,8.313,16,10C16,11.654,14.654,13,13,13z M3.5,7C2.122,7,1,8.121,1,9.5   S2.122,12,3.5,12H13c1.103,0,2-0.897,2-2s-0.897-2-2-2c-0.147,0-0.297,0.017-0.428,0.041c-0.137,0.026-0.28-0.007-0.392-0.091   c-0.112-0.084-0.184-0.211-0.197-0.35C11.775,5.548,10.063,4,8,4C6.297,4,4.779,5.079,4.223,6.684   C4.138,6.928,3.882,7.07,3.629,7.005C3.606,7,3.54,7,3.5,7z"></path><path d="M13,8c-0.228,0-0.448-0.025-0.654-0.073c-0.27-0.063-0.436-0.333-0.372-0.602c0.062-0.268,0.331-0.435,0.601-0.372   C12.706,6.984,12.85,7,13,7c0.948,0,1.745-0.664,1.949-1.551C14.804,5.483,14.653,5.5,14.5,5.5c-1.103,0-2-0.897-2-2   c0-0.153,0.018-0.303,0.051-0.448c-0.699,0.162-1.277,0.695-1.48,1.405c-0.076,0.265-0.351,0.418-0.618,0.344   c-0.265-0.076-0.419-0.353-0.343-0.618C10.476,2.897,11.665,2,13,2c0.159,0,0.306,0.012,0.452,0.037   c0.182,0.03,0.331,0.157,0.391,0.331s0.02,0.366-0.105,0.501C13.582,3.037,13.5,3.255,13.5,3.5c0,0.551,0.448,1,1,1   c0.244,0,0.463-0.082,0.63-0.237c0.135-0.125,0.327-0.165,0.501-0.106c0.174,0.059,0.301,0.208,0.332,0.39   C15.987,4.693,16,4.841,16,5C16,6.654,14.654,8,13,8z"></path></g></svg>
